svg/material-icons/currency_bitcoin/materialiconsround/20px.svg

<svg xmlns="http://www.w3.org/2000/svg" width="20" height="20" viewBox="0 0 20 20"><path d="M12.38 10.75c.9 0 1.62.73 1.62 1.62S13.27 14 12.38 14H8.5v-3.25h3.88zm-1-4.75c.89 0 1.62.73 1.62 1.62s-.73 1.62-1.62 1.62H8.5V6h2.88zm1.12-2.25c0-.41-.34-.75-.75-.75s-.75.34-.75.75v.75H9.5v-.75c0-.41-.34-.75-.75-.75S8 3.34 8 3.75v.75H6.25c-.41 0-.75.34-.75.75s.34.75.75.75H7v8h-.75c-.41 0-.75.34-.75.75s.34.75.75.75H8v.75c0 .41.34.75.75.75s.75-.34.75-.75v-.75H11v.75c0 .41.34.75.75.75s.75-.34.75-.75v-.75c1.67-.07 3-1.44 3-3.12 0-1.21-.69-2.26-1.7-2.78.44-.54.7-1.22.7-1.97 0-1.33-.83-2.46-2-2.92v-.96z"/></svg>

<svg xmlns="http://www.w3.org/2000/svg" enable-background="new 0 0 20 20" height="20" viewBox="0 0 20 20" width="20"><g><rect fill="none" height="20" width="20"/></g><g><path d="M12.38,10.75c0.9,0,1.62,0.73,1.62,1.62S13.27,14,12.38,14H8.5v-3.25H12.38z M11.38,6C12.27,6,13,6.73,13,7.62 s-0.73,1.62-1.62,1.62H8.5V6H11.38z M12.5,3.75C12.5,3.34,12.16,3,11.75,3S11,3.34,11,3.75V4.5H9.5V3.75C9.5,3.34,9.16,3,8.75,3 S8,3.34,8,3.75V4.5H6.25C5.84,4.5,5.5,4.84,5.5,5.25S5.84,6,6.25,6H7v8H6.25c-0.41,0-0.75,0.34-0.75,0.75s0.34,0.75,0.75,0.75H8 v0.75C8,16.66,8.34,17,8.75,17s0.75-0.34,0.75-0.75V15.5H11v0.75c0,0.41,0.34,0.75,0.75,0.75s0.75-0.34,0.75-0.75l0-0.75 c1.67-0.07,3-1.44,3-3.12c0-1.21-0.69-2.26-1.7-2.78c0.44-0.54,0.7-1.22,0.7-1.97c0-1.33-0.83-2.46-2-2.92L12.5,3.75z"/></g></svg>
